X:1
T:Christmas Trombone Medley
T:Christmas Trombone Medley Part 1
%%score 1 2 3
L:1/8
M:4/4
K:Eb
V:1 bass nm="Trombone" snm="Tbn."
V:2 bass nm="Trombone" snm="Tbn."
V:3 bass nm="Trombone" snm="Tbn."
V:1
!mp! A,2 ^C2 (C3 =C) | ^C2 F2 (F2 E2) | A2 A2 (A3 ^F) | (F2 E2 F4) | A,2 ^C2 (C3 =C) | %5
 ^C2 F2 (F2 E2) | A2 E2 (E2 ^C2) | (C2 B,2 A,4) |!mf! A2 A2 A2 ^C2 | (^F2 =F2 F2 E2) | %10
 A2 A2 A2 ^C2 | (^F2 =F2 F2 E2) | B3 B B2 A2 | ^F2 =F2 ^F4 | E2 F^F A3 ^C | ^C2 E2 F4 | %16
 B3 B B2 A2 | ^F2 =F2 ^F4 | E2 F^F A3 ^C |"^Rit." ^C2 E2 C4 |!p!"^Tempo I" ^C4 C2 =C2 | ^C4 C2 E2 | %22
 F2 F2 E2 ^C2 | ^C2 =C2 ^C4 | ^C4 C2 =C2 | ^C4 C2 E2 | F2 ^F2 E2 ^C2 | C2 B,2!<(! ^CEF^F!<)! | %28
!f! A8- | A4 ^CEF^F | A8- | A8 |!ff! !>!B3 !>!B !>!B2 A2 | (^F2 =F2 E4) |!>(! E2 (F^F) =F3 E | %35
 (^C2 =C2 ^C4)!>)! |!f! E2 (F^F) =F3 E | (^C2 =C2 !fermata!A,4) |[K:Eb]!f! B,4 CB,A,G, | %39
 A,4 B,A,G,F, | G,2 F,2 G,2 A,2 |!>(! G,4 F,4!>)! |!mp! G,2 G,2 G,2 B,2 | B,3 A, G,4 | %44
 G,2 F,2 G,2 B,2 | G,3 F, E,4 | G,2 G,2 G,2 B,2 | B,3 A, G,4 | G,2 F,2 G,2 B,2 | %49
!<(! G,3 F, E,4!<)! |!f! B,4 CB,A,G, | A,4 B,A,G,F, | G,4 A,G,F,E, | F,3 B,, B,,4 | %54
 G,2 F,2 G,2 A,2 | G,4 F,4 | =B,4 ^CB,=A,_A, | =A,4 =B,A,_A,^F, | A,4 =A,_A,^F,=E, | %59
 ^F,3 =B,, B,,4 | A,2 ^F,2 A,2 =A,2 | A,4 ^F,4 | =E8 | =E6- E!mf![Q:1/4=92]"^Andante"F, | %64
 F,CCB, A,G,F,E, | [F,B,][G,C][A,_D][B,E] [C_F]3 F, | F,CCB, A,G,F,E, | %67
!<(! [F,B,][G,C][A,_D][B,E] [C_F]3 [C=F]!<)! |!f! _DB,CD EFCB, | A,F,G,A, B,2 A,B, | %70
 C_DEF CB,A,G, | F,2 A,/G,/F, C2 C_D | EFCB, A,2 CB, | C2 B,2 F2 E2 | %74
[K:Db][M:3/4][Q:1/4=144]"^Allegro" A,2 A,B, A,=G, | !>!F,2 D,2 F,2 | B,2 B,C B,A, | %77
 !>!=G,2 E,2 G,2 | C2 CD CB, | A,2 F,2 E,E, | F,2 B,2 =G,2 | A,4 E,2 | A,2 A,2 A,2 | =G,4 G,2 | %84
 A,2 =G,2 F,2 | E,4 B,2 | C2 B,B, A,A, | E2 E,2 E,E, | F,2 B,2 =G,2 | C6 ||[K:C][M:4/4] B,8 | %91
 (C2 B,2 ^A,2 B,2 | C8) | (^C2 D6) | z2 (E2 ^F2 G2) | A2 G2 ^F2 E2 | D8- | D4 (G,2 A,2 | B,4) B,4 | %99
 B,2 (E4 D2) | G,4 G,4 | G,2 (D4 C2) | B,8 | (C2 B,2) A,2 G,2 | (A,8 | A,8) | B,8 | %107
 (C2 B,2 ^A,2 B,2 | C8) | (^C2 D6) | z2 ((E2 ^F2) G2) | A2 G2 ^F2 E2 | D8- | D4 (G,2 A,2 | %114
 B,4) B,4 | B,2 (E4 D2) | G8- | G4 G,2 A,2 | B,4 B,4 | E3 ^F, F,2 F,2 | G,8- | G,4 z4 | B,8 | %123
 C2 B,2 ^A,2 B,2 | C8 | ^C2 D6 | z2 E2 ^F2 G2 | A2 G2 ^F2 E2 | D8- | D4 G,2 A,2 | B,4 B,4 | %131
 B,2 E4 D2 | G,4 G,4 | G,2 D4 C2 | B,8 | C2 B,2 A,2 G,2 | (A,8 | A,8) | B,8 | C2 B,2 ^A,2 B,2 | %140
 C8 | ^C2 D6 | z2 E2 ^F2 G2 | A2 G2 ^F2 E2 | D8- | D4 G,2 A,2 | B,4 B,4 | B,2 E4 D2 | G8- | %149
 G4 G,2 A,2 | B,4 B,4 | E3 ^F, F,2 F,2 | G,8 | G,8 |!mf! C4 B,3 A, | G,6 F,2 | E,4 D,4 | C,6 G,2 | %158
 C6 A,2 | D6 B,2 | C8- | C6 C2 | C2 B,2 A,2 G,2 | G,3 F, E,2 C2 |!<(! C2 B,2 A,2 G,2!<)! | %165
!f! G,3 F, E,2 E,2 | .E,2 .E,2 .E,2 E,F, | G,6 F,E, | .D,2 .D,2 .D,2 D,E, | F,6 E,D, | %170
!<(! C,2 C4 A,2!<)! |"_cresc." G,3 F, E,2 F,2 | E,4 B,4 | !fermata!C8 |[Q:1/4=40] C2 D2 | %175
 (3_EC_A, (3D_B,G, (3CA,F, (3:2:2C B,2 | (_E2 D2 C2) (3:2:2C _B,2 |[Q:1/4=80] G,2 G,2 G,2 G,2 | %178
 C4 z2 C D | _E2 E2 E D2 C | _B,4- B,2 z2 |[Q:1/4=140]"^Swing" _B,C z B, G, z _E2 | C2 _B,2 z4 | %183
 _B,CB,C B,2 _E2 | D4- D2 z2 | _A,_B, z A, F, z D2 | C2 _B,2 z4 | _B,CB,C B,2 C2 | G,4- G,2 z2 | %189
 _B,C z B, G, z _E2 | C2 _B,2 z4 | _B,CB,C B,2 _E2 | D4- D2 z2 | _A,_B, z A, F, z D2 | C2 _B,2 z4 | %195
 _B,CB,C B,2 F2 | _E4- E2 z2 | C2 C2 _E3 C | C2 G,_B,- B,3 z | _A, C2 z _B,2 z A, | G,4- G,4 | %201
 F,2 G,2 _B, C2 z | D2 DD- D3 z | FF _E2 D2 C2 | _B,2 _A,F,- F,3 z | _B,C z B, G, z _E2 | %206
 C2 _B,2 z4 | _B,CB,C B,2 _E2 | D4- D2 z2 | _A,_B, z A, F, z D2 | C2 _B,2 z4 | _B,CB,C B, z F2 | %212
 _E4- E2 z2 | !>!_E2 z2 z4 |[K:Db]!mp![Q:1/4=80]!mp!"^Straight" A,2 F,2 A,2 F,2 | D4 A,4 | %216
 B,D G,2 F,A, D,2 | F,4 E,4 | (3D,F,A, (3CDA, (3D,F,A, (3CDA, | (3D,G,A, (3CDB, (3D,G,A, (3CDB, | %220
!mf! A,2 F,2 A,2 F,2 | D4 A,4 | E,2 B,2 A,2 D,G, | F,4 E,4 | A,2 F,2 A,2 F,2 | D4 A,4 | %226
 B,D G,2 F,A, D,2 | F,4 E,4 | z2 F,D, G,2 E,2 | z2 =G,E, B,2 A,2 | z2 =A,F, C2 B,2 | z2 DB, C4 | %232
!mf! A,2 F,2 A,2 F,2 | D4 A,4 | E,2 B,2 A,2 D,G, | F,4 E,4 | A,2 F,2 A,2 F,2 | D4 A,4 | %238
 z2 B,/C/D A,2 F,2 | z2 B,/C/D A,2 F,2 | z2 B,/C/D A,2 F,2 | D,2 D4 C2 | %242
 z!>(! A,/E,/ F,A,, D,A,/E,/!>)! F,A,, |[K:F] D,!>(!A,/E,/ _G,A,, D,A,/E,/!>)! G,A,, | %244
!mp! A,2 _G,2 A,2 G,2 | D4 A,4 | =B,D G,2 _G,A, D,2 | _G,4 G,4 | A,2 _G,2 A,2 G,2 | D4 A,4 | %250
 z2 =B,/_D/=D A,2 _G,2 | z2 =B,/_D/=D A,2 _G,2 | z2 =B,/_D/=D A,2 _G,2 | D,2 D4 _D2 | D8 | D8 | %256
[M:3/4][Q:1/4=172]"^Vivace" _D2 CD B,2 | _D2 CD B,2 | _D2 CD B,2 | _D2 CD B,2 | z6 | z6 | z6 | z6 | %264
 _D2 CD B,2 | _D2 CD B,2 | _D2 CD B,2 | _D2 CD B,2 | _D2 CD B,2 | _D2 CD B,2 | _D2 CD B,2 | %271
 _D2 CD B,2 | _D2 CD B,2 | _D2 CD B,2 | _D2 CD B,2 | _D2 CD B,2 | B2 BB _AF | _G2 GG _AF | %278
 _E2 EE FE | _D2 CD B,2 | F,G, A,B, C_D | _EF E2 _D2 | F,G, A,B, C_D | _EF E2 _D2 | _D2 CD B,2 | %285
 _D2 CD B,2 | _D2 CD B,2 | _D2 CD B,2 | _D2 CD B,2 | _D2 CD B,2 |"_dim." B,6- |"_dim." B,6- | %292
"_dim." B,6- |"_dim." !fermata!B,6 | F6 | _E6 | F6 | _D6- | D6- | D6- | D6 | %301
[K:G][M:4/4][Q:1/4=114]"^Moderato" F,B,F,D, E,A,E,^C, | D,G,D,B,, ^C2 F,2 | B,DB,G, A,^CA,F, | %304
 E,B,G,E, F,4 | B,2 F2 FG E2 | A2 C2 B,4 | E2 FG AF D2 | C2 E2 F4 | B,,2 F,2 F,G, E,2 | %310
 A,2 C2 C2 B,2 | A,B, G,2 F,2 G,E, | B,2 ^D2 E4 | E,2 B,2 B,C A,2 | G,A, F,2 F,2 E,2 | %315
 E,2 B,2 B,C A,2 | G,A, F,2 ^G,2- G,2 | E,2 A,2 A,B, G,2 | F,G, E,2 D,2 B,,2 | E,2 F,G, A,B, A,2 | %320
 C,2 D,E, F,4 | B,,2 F,2 F,G, E,2 | A,2 C,2 B,,2- B,,2 | E,2 F,G, A,F, D,2 | E,2 C2 B,4 | %325
 E,2 B,2 B,C A,2 | D2 =F2 F2 E2 | DE C2 B,2 CA, | G,4 F,4 | E,4 E4- | E6 z2 | CD B,2 A,2 B,G, | %332
 F2 C4 ^D2 | E8 | E6 z2 | z8 | z8 | z8 | z8 | z8 | z8 | z8 | z8 | z8 | z8 | z8 | z8 | z8 | z8 | %349
 z8 | z8 | z8 |] %352
V:2
 z8 | z8 | z8 | z8 | z8 | z8 | z8 | z8 |!mp! F8 | ^F2 =F2 F2 E2 | F8 | ^F2 =F2 F2 E2 | %12
 ^F3 F F2 =F2 | E2 D2 E4 | E4 A4 | ^C2 =C2 A,4 | ^F3 F F2 =F2 | E2 D2 E4 | E4 A4 | ^C2 =C2 ^C4 | %20
!mf! A,2 ^C2 (C3 =C) | ^C2 F2 (F2 E2) | A2 A2 (A3 ^F) | (F2 E2 F4) | A,2 ^C2 (C3 =C) | %25
 ^C2 F2 (F2 E2) | A2 E2 (E3 ^C) | (C2 B,2 A,4) |!f! !>!A2 !>!A2 !>!A2 ^C2 | %29
!>(! (^F2 =F2 F2!>)!!mf! E2) |!f! !>!A2 !>!A2 !>!A2 ^C2 |!>(! (^F2 =F2 F2!>)!!mf! E2) | %32
!ff! !>!^F3 !>!F !>!F2 =F2 | (E2 D2 E4) |!>(! E2 (F^F) A3 F | (F2 ^F2 =F4)!>)! |!f! E2 (F^F) A3 F | %37
 (A2 ^F2 !fermata!=F4) |[K:Eb]!f! B,A,G,F, =E,4 | A,G,F,E, D,4 | E,2 D,2 E,2 F,2 | %41
!>(! F,2 E,2 E,2 D,2!>)! |!mp! E,2 E,2 E,2 G,2 | G,3 F, E,4 | E,2 D,2 E,2 G,2 | E,2 D,2 G,4 | %46
 E,2 E,2 E,2 G,2 | G,3 F, E,4 | E,2 D,2 E,2 G,2 |!<(! E,2 D,2 G,4!<)! |!f! B,A,G,F, =E,4 | %51
 A,G,F,E, D,4 | G,F,E,D, C,4 | D,C, D,2 B,,4 | E,2 D,2 E,2 F,2 | E,2 C,2 D,4 | =B,=A,_A,^F, =F,4 | %57
 =A,_A,^F,=E, _E,4 | A,^F,=E,_E, ^C,4 | E,^C, E,2 =B,,4 | =E,2 _E,2 =E,2 ^F,2 | %61
 ^F,2 =E,2 E,2 _E,2 | =B,8 | =A,6- A,!mp!F, | F,A,G,=E, F,_E,_D,C, | F,=E,F,F, E,3 z | %66
 F,A,G,=E, F,_E,_D,C, |!<(! F,=E,F,F, E,3 A,!<)! |!mf! B,2 E_D CB,A,G, | F,A,G,F, G,2 F,G, | %70
 A,B,C_D A,G,F,=E, | F,2 A,/G,/F, G,2 A,B, | C_DA,G, F,2 A,G, | A,2 G,2 F,2 E2 | %74
[K:Db][M:3/4] A,2 A,B, A,=G, | !>!^C,2 z2 D,2 | F,2 F,F, F,E, | !>!E,2 z2 E,2 | C,2 C,D, C,B,, | %79
 F,2 z2 E,E, | D,2 z2 E,2 | C,4 E,2 | A,2 A,2 A,2 | =G,4 G,2 | A,2 =G,2 F,2 | E,4 B,2 | %86
 C,2 B,,B,, A,,A,, | E,2 E,2 E,E, | F,2 B,2 =G,2 | A,6 ||[K:C][M:4/4] D,4 D,4 | %91
 (A,2 G,2) ^F,2 G,2 | A,4 E,4 | E,4 D,4 | G,4 C4 | C4 A,4 | B,4 G,4 | B,4 D,4 | D,4 D,4 | E,4 G,4 | %100
 C,4 C,4 | D,4 ^F,4 | G,4 E,4 | C,4 B,,4 | D,4 ^F,4 | ^F,4 D,4 | D,4 D,4 | (A,2 G,2) ^F,2 G,2 | %108
 A,4 E,4 | E,4 ^F,4 | G,4 C4 | C4 A,4 | B,4 G,4 | B,4 D,4 | D,4 D,4 | E,4 G,4 | C4 E4 | C4 E,4 | %118
 D,4 D,4 | E,3 D, D,4 | D,4 B,,4 | B,,2 D,2 ^F,4 | G,2 D,2 D,4 | A,2 G,2 ^F,2 G,2 | %124
 A,2 E,2 E,2 A,2 | E,2 ^F,6 | G,4 C4 | E4 A,4 | G,2 A,2 B,4 | G,4 D,4 | G,2 D,2 G,2 ^F,2 | %131
 G,4 F,4 | E,4 E,2 C,2 | B,,2 G,2 ^F,4 | G,2 ^F,2 E,2 G,2 | E,4 ^F,2 E,2 | ^F,2 D,2 F,4- | %137
 F,4 D,2 C,2 | B,,2 C,2 D,4 | A,2 G,2 ^F,2 G,2 | A,2 E,2 E,2 A,2 | G,2 ^F,6 | z2 C2 D2 E2 | %143
 ^F2 E2 D2 C2 | B,2 A,2 G,2 A,2 | B,4 B,,4 | G,2 D,2 G,2 ^F,2 | G,4 F,4 | E,2 G,2 E,2 G,2 | %149
 G,2 E,2 _E,4 | D,2 G,2 D,4 | G,3 D, D,2 C,2 | B,,4 D,2 C,2 | B,,8 |!mf! C4 B,3 A, | G,6 F,2 | %156
 E,4 D,4 | C,6 G,2 | A,6 A,2 | B,6 B,2 | G,8 | C6 C2 | z6 C2 | C2 B,2 A,2 G,2 | G,3 F, E,2 C2 | %165
 C2 B,2 A,2 G,2 | z8 | .E,2 .E,2 .E,2 E,F, | G,6 F,E, | .D,2 .D,2 .D,2 E,D, |!<(! C,2 C4 A,2!<)! | %171
"_cresc." G,3 F, E,2 F,2 | E,4 D,4 | !fermata!C,8 | _A,2 _B,2 | (_A,2 G,2 F,2 _E,2) | %176
 (3_EC_A, (3D_B,G, (3CA,F, (3:2:2C B,2 | _E2 D2 C2 _B,2 | (A,2 G,2 F,) z F, F, | F,2 F,2 F,4 | %180
 ._B,2 ._A,2 .G,2 .F,2 | _E,2 z2 _B,,2 z2 | _E,2 z2 _B,,2 D,2 | _E,2 D,2 C,2 _B,,2 | %184
 _B,2 F,>G, _A,>G, F,2 | D,2 z2 _B,,2 z2 | F,2 z2 _B,,2 D,2 | F,2 z2 _B,,2 C,2 | %188
 _E,2 D,2 C,2 _B,,2 | _E,2 z2 _B,,2 z2 | _E,2 z2 _B,,2 D,2 | _E,2 D,2 C,2 _B,,2 | %192
 _B,2 F,>G, _A,>G, F,2 | D,2 z2 _B,,2 z2 | F,2 D,2 C,2 _B,,2 | D,2 z2 _B,,2 _A,2 | %196
 _B,2 G,B,- B,G, B,2 | _A,3 A,- A,2 A,2 | G,2 G,2 G,2 E,2 | z !^!_A, z2 !>!G,2 z2 | %200
 _E,2 C,2 _B,,2 G,,2 | z .F,, z2 F,,2- F,,F, | _B,2 B,_A,- A,3 z | _A,4 F,4 | _B,4 F,2 _B,,2 | %205
 _E,2 z2 _B,,2 z2 | _E,2 z2 _B,,2 D,2 | _E,2 z2 _B,,2 z2 | _B,2 F,>G, _A,>G, F,2 | %209
 D,2 z2 _B,,2 z2 | F,2 z2 _B,,2 D,2 | F,2 z2 _B,,2 z2 | _E,2 _B,>C _D>C B,2 | !>!_E,2 z2 z4 | %214
[K:Db]!mp! D,F,A,F, C,F,A,F, | D,G,B,G, C,F,A,F, | D,G,B,G, C,F,A,F, | D,G,B,G, C,E, A,2 | z8 | %219
 z8 |!mf! D4 C4 | D4 C4 | D4 D4 | B,4 (B,2 C2) | D4 C4 | B,4 D4 | B,2 B,2 D2 A,2 | B,4 (B,2 C2) | %228
 F,4 G,4 | =G,4 A,4 | =A,4 F,4 | E,3 E, E,4 | D4 C4 | D4 C4 | D4 F,2 D2 | A4 B,3 A, | A4 C4 | %237
 B,4 D4 | B,4 D4 | B,4 C4 | B,4 D2 D2 | B,4 D2 E2 |!>(! A,8!>)! |[K:F]!>(! A,8!>)! |!mf! D4 _D4 | %245
 D4 _D4 | D4 D4 |!>(! =B,4 (B,2 _D2)!>)! | A4 _D4 | =B,4 D4 | =B,4 D4 | =B,4 _D4 | =B,4 D2 D2 | %253
 =B,4 D2 E2 | z!>(! A,/E,/ _G,A,, D,A,/E,/!>)! G,A,, | E,2 _G,6 |[M:3/4] z z z4 | z6 | z6 | z6 | %260
 _D2 CD B,2 | _D2 CD B,2 | _D2 CD B,2 | _D2 CD B,2 | B,6 | _A,6 | _G,6 | F,6 | _G,2 G,G, G,2 | %269
 B,2 B,B, B,2 | B,2 B,B, B,2 | B,2 B,B, B,2 | F2 _EF _D2 | F2 _EF _D2 | F2 _EF _D2 | F2 _EF _D2 | %276
 F2 FF _EC | _D2 DD _EC | B,2 B,B, C_A, | F,2 _E,F, _D,2 | F,6 | G,2 A,2 B,2 | F,6 | G,2 A,2 B,2 | %284
 F,6 | _G,6 | _A,6 | _G,6 | F,6- | F,6 |"_dim." _G,6- |"_dim." G,6- |"_dim." G,6- | %293
"_dim." !fermata!G,6 | _D6 | C6 | _D6 | F6- | F6- | F6- | F6 |[K:G][M:4/4] B,4 A,4 | G,4 F,4 | %303
 G,4 F,4 | E,4 ^C,4 | B,,4 C,4 | D,2 C2 G,4 | C,4 D,4 | C,4 F,,4 | B,,2- B,,2 C,4 | D,4 G,2- G,2 | %311
 F,2 E,2 D,2 C,2 | B,,2- B,,2 B,4 | C,4 G,2- G,2 | C,4 D,2 E,2 | C,2- C,2 G,4 | C,2 D,2 E2- E2 | %317
 A,,4- A,,2 E,,2 | A,,2- A,,2 G,,4 | C,2 B,,2 A,,2- A,,2 | A,,2 G,,2 F,,4 | B,,2- B,,2 C,4 | %322
 A,2 C,2 G,,4 | E,2 F,G, D4 | A,4 F,4 | E,4 A,4 | D4 C4 | B,2 A,2 ^G,2 A,2 | B,4 ^D4 | B,4- B,4- | %330
 B,6 z2 | A,,2 G,,2 F,,2 E,,2 | B,,4 C2 A,2 | E2 B,6 | B,6 z2 | z8 | z8 | z8 | z8 | z8 | z8 | z8 | %342
 z8 | z8 | z8 | z8 | z8 | z8 | z8 | z8 | z8 | z8 |] %352
V:3
 z8 | z8 | z8 | z8 | z8 | z8 | z8 | z8 |!mp! ^C,8 | B,,4 C,4 | ^C,8 | B,,4 C,4 | B,3 B, B,2 A,2 | %13
 ^F,2 =F,2 ^F,4 | C,2 ^C,E, C,3 A,, | A,,2 C,2 ^C,4 | B,3 B, B,2 A,2 | ^F,2 =F,2 ^F,4 | %18
 C,2 ^C,E, C,3 A,, | A,,2 C,2 ^C,4 |!mf! A,,2 ^C,2 (C,3 =C,) | ^C,2 F,2 (F,2 E,2) | %22
 A,2 A,2 (A,3 ^F,) | (F,2 E,2 F,4) | A,,2 ^C,2 (C,3 =C,) | ^C,2 F,2 (F,2 E,2) | A,2 E,2 (E,3 ^C,) | %27
 (C,2 B,,2 A,,4) |!f! !>!A,2 !>!A,2 !>!A,2 ^C,2 |!>(! (^F,2 =F,2 F,2!>)!!mf! E,2) | %30
!f! !>!A,2 !>!A,2 !>!A,2 ^C,2 |!>(! (^F,2 =F,2 F,2!>)!!mf! E,2) |!ff! !>!B,3 !>!B, !>!B,2 A,2 | %33
 (^F,2 =F,2 E,4) |!>(! E,2 (F,^F,) =F,3 E, | (^C,2 =C,2 ^C,4)!>)! |!f! E,2 (F,^F,) =F,3 E, | %37
 (^C,2 =C,2 !fermata!^C,4) |[K:Eb]!mf! E,4 C,4 | F,4 B,,4 | B,,2 B,,B,, B,,2 B,,B,, | %41
!>(! B,,2 B,,B,, B,,2 B,,2!>)! |!p! E,2 E,2 E,2 B,,2 | B,,2 B,,2 E,2 B,,B,, | %44
 B,,2 B,,B,, B,,2 B,,B,, | B,,2 B,,2 E,2 B,,B,, | E,2 E,2 E,2 B,,2 | B,,2 B,,2 B,,2 B,,B,, | %48
 B,,2 B,,B,, B,,2 B,,B,, |!<(! B,,C, B,,2 E,4!<)! |!mf! E,4 C,4 | F,4 B,,4 | E,4 A,,4 | %53
 B,,A,, B,,2 E,4 | E,2 B,,2 E,2 C,A,, | B,,2 =A,,2 B,,4 | =E,4 ^C,4 | ^F,2 ^C,2 F,2 =B,,2 | %58
 =E,4 =A,,4 | =B,,=A,, B,,2 =E,4 | =E,2 =B,,B,, B,,2 B,,B,, | =E,2 =A,,2 =B,,4 | A,8 | %63
 C6- C!mp!C, | C,F,=E,C, _D,C,B,,A,, | _D,C,D,D, C,3 z | C,F,=E,C, _D,C,B,,A,, | %67
!<(! _D,C,D,D, C,3 C,!<)! |!mf! _D,F,E,D, C,F,E,=E, | F,2 C,F, =E,2 CB, | C2 A,B, CB,A,G, | %71
 F,2 A,/G,/F, =E,2 F,G, | A,B,F,E, _D,2 F,=E, | F,2 E,2 F,2!mf! C2 |[K:Db][M:3/4] C4 C2 | %75
 !>!D2 z2 D2 | =D4 =D2 | !>!E2 z2 E2 | _F4 _F2 | F2 z2 EE | ^C2 z2 C2 | C4 C2 | A,2 A,2 A,2 | %83
 =G,4 G,2 | A,2 =G,2 F,2 | E6 | C2 B,B, A,A, | E2 E2 EE | F6 | E6 ||[K:C][M:4/4] G,4 G,4 | %91
 E,4 ^F,4 | E,4 A,4 | A,4 D,4 | C,4 E,4 | A,4 D,4 | G,,4 B,,4 | G,,4 B,,4 | G,,4 G,4 | G,4 F,4 | %100
 E,4 E,4 | B,4 A,4 | E,4 G,4 | E,4 D,4 | ^F,4 D,4 | A,4 ^F,4 | G,4 G,4 | E,4 ^F,4 | E,4 A,4 | %109
 A,4 D,4 | C,4 E,4 | A,4 D,4 | G,,4 B,,4 | G,,4 B,,4 | G,,4 G,4 | G,4 F,4 | E,4 C,4 | E,4 C,4 | %118
 G,4 G,4 | G,4 D,2 C,2 | B,,4 G,,4 | G,2 B,2 A,2 D,2 | G,,4 G,,2 D,2 | C,4 ^C,4 | C,2 A,,2 A,,4 | %125
 A,,4 D,2 A,,2 | C,4 E,4 | C,4 D,4 | B,,2 A,,2 G,,2 D,2 | G,,2 B,,2 B,,4 | G,,4 B,,4 | E,,4 G,,4 | %132
 C,2 G,,2 C,2 E,2 | G,,2 B,,2 D,4 | E,2 ^F,2 G,2 E,2 | C,4 ^C,4 | D,2 ^F,2 D,2 A,,2 | %137
 D,2 ^F,2 F,4 | G,4 G,,2 D,2 | C,4 ^C,4 | C,2 A,,2 A,,4 | A,,4 D,2 A,,2 | C,4 E,2 C,2 | C,4 D,4 | %144
 G,,2 A,,2 B,,2 A,,2 | G,,2 G,2 G,4 | G,,4 B,,4 | E,,4 G,,4 | C,2 E,2 C,2 E,2 | E,2 C,2 C,4 | %150
 G,,4 G,,2 D,2 | C,2 E,2 D,2 D,2 | G,,4 B,,2 A,,2 | G,,8 |!mf!!mf! C4 B,3 A, | G,6 F,2 | E,4 D,4 | %157
 C,6 G,2 | C6 A,2 | D6 B,2 | C8- | C6 C2 | C2 B,2 A,2 G,2 | G,3 F, E,2 C2 | %164
!<(! C2 B,2 A,2 G,2!<)! |!f! G,3 F, E,2 E,2 | .E,2 .E,2 .E,2 E,F, | G,6 F,E, | %168
 .D,2 .D,2 .D,2 D,E, | F,6 E,D, |!<(! C,2 C4 A,2!<)! |"_cresc." G,3 F, E,2 F,2 | E,4 B,4 | %173
 !fermata!C8 | _A,2 _B,2 | (_A,2 G,2 F,2 _E,2) | (3_EC_A, (3D_B,G, (3CA,F, (3:2:2C B,2 | %177
 _E2 D2 C2 _B,2 | (A,2 G,2 F,) z F, F, | F,2 F,2 F,4 | ._B,2 ._A,2 .G,2 .F,2 | _E,2 z2 _B,,2 z2 | %182
 _E,2 z2 _B,,2 D,2 | _E,2 D,2 C,2 _B,,2 | _B,2 F,>G, _A,>G, F,2 | D,2 z2 _B,,2 z2 | %186
 F,2 z2 _B,,2 D,2 | F,2 z2 _B,,2 C,2 | _E,2 D,2 C,2 _B,,2 | _E,2 z2 _B,,2 z2 | _E,2 z2 _B,,2 D,2 | %191
 _E,2 D,2 C,2 _B,,2 | _B,2 F,>G, _A,>G, F,2 | D,2 z2 _B,,2 z2 | F,2 D,2 C,2 _B,,2 | %195
 D,2 z2 _B,,2 _A,2 | _B,2 G,B,- B,G, B,2 | _A,3 A,- A,2 A,2 | G,2 G,2 G,2 E,2 | %199
 z !^!_A, z2 !>!G,2 z2 | _E,2 C,2 _B,,2 G,,2 | z .F,, z2 F,,2- F,,F, | _B,2 B,_A,- A,3 z | %203
 _A,4 F,4 | _B,4 F,2 _B,,2 | _E,2 z2 _B,,2 z2 | _E,2 z2 _B,,2 D,2 | _E,2 z2 _B,,2 z2 | %208
 _B,2 F,>G, _A,>G, F,2 | D,2 z2 _B,,2 z2 | F,2 z2 _B,,2 D,2 | F,2 z2 _B,,2 z2 | %212
 _E,2 _B,>C _D>C B,2 | !>!_E,2 z2 z4 |[K:Db]!mp! ^C4 =C4 | B,4 C4 | D4 C4 | B,4 C4 | z8 | z8 | %220
!mf! D, D,2 D, D, D,2 D, |!mf! B, B,2 B, A, A,2 A, | E,3 E, F,3 F, | F,3 F, A,4 | D,3 D, D,4 | %225
 G,3 G, F,4 | G,2 E,2 D,2 A,2 | F,3 F, A,4 | D,3 D, D,4 | D,3 D, C,4 | F,3 F, B,4 | E,3 E, A,4 | %232
 D,3 D, D,4 | B,3 B, A,4 | G,3 G, A,4 | F,3 G, A,4 | D,3 D, D,4 | G,3 G, F,3 F, | %238
 G, G,2 G, F, F,2 F, | G, G,2 G, F, F,2 F, | G,3 G, D,2 B,2 | G,3 G, E,2 A,2 | D,3 D, D,4 | %243
[K:F] D,3 D, D,4 |!mp! D,_G,A,G, _D,G,A,G, |!mp! D,_G,A,G, _D,G,A,G, | D,_G,A,G, _D,G,A,G, | %247
 D,G,=B,G, _D,E, A,2 | D,3 D, D,4 | G,3 G, _G,3 G, | G, G,2 G, _G, G,2 G, | G, G,2 G, _G, G,2 G, | %252
 G,3 G, D,2 =B,2 | G,3 G, E,2 A,2 | D,8 | D,8 |[M:3/4] z6 | z6 | z6 | z6 | B,6 | _A,6 | _G,6 | %263
 F,6 | _G,6 | F,6 | _E,6 | B,,6 | _E,2 E,E, E,2 | F,2 F,F, F,2 | _G,2 G,G, G,2 | F,2 F,F, F,2 | %272
 F,6 | G,6 | _A,2 G,2 F,2 | B,_A, G,2 F,2 | F,2 F,F, _E,2 | B,2 B,B, _G,F, | _G,2 G,G, _A,F, | %279
 F,2 F,F, F,2 | _D,2 C,D, B,,2 | _D,2 C,D, B,,2 | _D,2 C,D, B,,2 | _D,2 C,D, B,,2 | B,,6 | _E,6 | %286
 F,6 | _E,6 | B,,6- | B,,6 |"_dim." _D,2 C,D, B,,2 |"_dim." _D,2 C,D, B,,2 | %292
"_dim." _D,2 C,D, B,,2 |"_dim." _D,2 C,D, !fermata!B,,2 | z2 z4 | z4 z2 | z6 | z6 | z6 | B,6- | %300
 B,6 |[K:G][M:4/4] z8 | z8 | z8 | E,4 F,4 | F,4 z4 | z2 C2 D,4 | G,4 z4 | G,4 B,2 ^A,2 | %309
 F,2- F,2 z4 | z8 | F,2 B,2 A,2 G,2 | F,2- F,2 G,4 | G,4 z4 | z8 | G,2- G,2 z4 | C,2 D,2 B,2- B,2 | %317
 A,,4 z4 | z8 | z8 | z4 B,2 ^A,2 | F,2- F,2 z4 | A,2 C,2 D,4 | E,2 F,G, D4 | A,4 ^D,4 | E,4 A,4 | %326
 D4 C4 | B,2 A,2 ^G,2 A,2 | G,4 A,4 | G,4- G,4- | G,6 z2 | A,,2 G,,2 F,,2 z2 | z4 C2 F,2 | G,8 | %334
 G,6 z2 | z8 | z8 | z8 | z8 | z8 | z8 | z8 | z8 | z8 | z8 | z8 | z8 | z8 | z8 | z8 | z8 | z8 |] %352

